<?xml version="1.0" encoding="UTF-8"?>
<map version="1.10" tiledversion="1.12.2" orientation="orthogonal" renderorder="right-down" width="1672" height="941" tilewidth="1" tileheight="1" infinite="0" nextlayerid="4" nextobjectid="38">
 <imagelayer id="2" name="House Background" offsetx="32" offsety="20">
  <image source="MushakGame/assets/house.png" width="1672" height="941"/>
 </imagelayer>
 <objectgroup id="3" name="Collision">
  <object id="1" x="716" y="221" width="294" height="70"/>
  <object id="2" x="1022" y="214" width="84" height="49"/>
  <object id="3" x="1105" y="104" width="281" height="185"/>
  <object id="4" x="1405" y="85" width="133" height="228"/>
  <object id="5" x="701" y="220" width="15" height="71"/>
  <object id="6" x="979" y="772" width="40" height="111"/>
  <object id="7" x="1030" y="789" width="74" height="122"/>
  <object id="8" x="718" y="771" width="40" height="110"/>
  <object id="9" x="627" y="786" width="85" height="129"/>
  <object id="11" x="500" y="207" width="193" height="55"/>
  <object id="12" x="472" y="202" width="28" height="61"/>
  <object id="13" x="176" y="199" width="293" height="92"/>
  <object id="14" x="154" y="294" width="309" height="31"/>
  <object id="15" x="238" y="411" width="212" height="104"/>
  <object id="16" x="187" y="436" width="50" height="80"/>
  <object id="17" x="238" y="515" width="186" height="29"/>
  <object id="18" x="222" y="520" width="21" height="55"/>
  <object id="19" x="422" y="514" width="17" height="64"/>
  <object id="20" x="463" y="450" width="55" height="59"/>
  <object id="21" x="457" y="510" width="62" height="34"/>
  <object id="22" x="174" y="495" width="25" height="49"/>
  <object id="23" x="148" y="743" width="92" height="150"/>
  <object id="24" x="120" y="563" width="38" height="141">
   <ellipse/>
  </object>
  <object id="25" x="92" y="576" width="31" height="132">
   <ellipse/>
  </object>
  <object id="26" x="68" y="721" width="79" height="43"/>
  <object id="27" x="147" y="290">
   <polygon points="0,0 -78,297 -57,317 8,39"/>
  </object>
  <object id="28" x="1454" y="408" width="128" height="228"/>
  <object id="29" x="1612" y="614" width="48" height="112"/>
  <object id="30" x="1518" y="786" width="52" height="102"/>
  <object id="31" x="1580" y="756" width="90" height="128"/>
  <object id="32" x="1680" y="686" width="18" height="186"/>
  <object id="33" x="1548" y="214" width="32" height="118"/>
  <object id="34" x="64" y="660" width="18" height="56"/>
  <object id="35" x="1588" y="282">
   <polygon points="0,0 -6,56 50,316 84,314"/>
  </object>
  <object id="36" x="48" y="900" width="576" height="40"/>
  <object id="37" x="1110" y="898" width="578" height="26"/>
 </objectgroup>
</map>
